X:1
T:Mahler no.2
T:Mahler no.2 
T:Trombone 4
T:Gustav Mahler
C:Gustav Mahler
L:1/8
Q:1/4=80
M:4/4
K:Db
V:1 bass nm="Trombone" snm="Tbn."
V:1
!pp! !tenuto!D,4 !tenuto!F,4 | !tenuto!D,4 !tenuto!B,,4 | !tenuto!E,4 !tenuto!B,,2 !tenuto!_C,2 | %3
 !tenuto!D,4 !breath!!tenuto!G,,4 | !tenuto!C,4 !tenuto!D,4 | !tenuto!E,4 !tenuto!C,4 | %6
 !tenuto!C,2 !tenuto!A,,2 !tenuto!E,2 !tenuto!D,2 | C,6 z2 |!p! !tenuto!F,4 !tenuto!C,4 | F,4 z4 | %10
 C,2 C,2 C,4 | C,4 z4 | A,,4 E,,4 |!<(! C,2 B,,2 A,,2 F,,2!<)! |!f! B,,4 G,,4 | _C,4 =G,,4 | %16
!<(! =D,2 E,2 F,2 (^F,2!<)! |!ff!!p!!f!!<(!!<(! =G,8-)!<)!!<)! |!ff!!>(! G,8-!>)! | %19
[K:C]!p! G,2 z2 z4 | z8 |!ff!!>(! C,,8-!>)! | C,,4 z2 G,2 | E,4 F,4 | G,4 z4 | G,2 F,E, (F,3 G,) | %26
 G,4 z4 | _A,4 F,4 | G,4 z4 | _A,4 F,4 | G,4 z4 | z4 z2!ff! G,2 | F,8- | F,4 z2 (3G,D,G, | F,8- | %35
 F,4 z2 (3DG,D | G4 z4 | z8 |!mf! C,6 _E,_D, |!>(! C,6 _E,_D,!>)! |!p! C,8 | G,,8 | C,,8 | z8 | %44
 !fermata!z8 |[K:F] _A,,4 G,,4 | _A,,4 _E,,4 | .=B,,2 .^A,, z/ .B,,/ ^F,,4 | %48
 ._E,2 .D, z/ .E,/ B,,4 | z8 | z8 | z8 | z8 |[K:Ab] z8 | z8 | z8 | z8 | z8 | z8 | z8 | z8 | %61
!f! F,4 C,4 | F,4 z4 | D,4 _G,,4 | D,4 z4 |!ff! B, z/ =A,/ G, z/ F,/ E, z/ =D,/ C, z/ B,,/ | %66
 =D, z/ C,/ B,, z/ =A,,/ G,, z/ F,,/ G,, z/ A,,/ | B,, z z2 z4 | z8 | %69
 =D, z/ F,/ B, z/ =A,/ G, z/ F,/ E, z/ D,/ | E, z/ B,/ E z/ =D/ C z/ B,/ A, z/ _G,/ | F, z z2 z4 | %72
 z8 |!f! E,2 _G,2 _C,2 _F,2 |!fff! B,,4 D,4 |!>(! F,,8-!>)! | F,,2 z2!ff! B,,2 D,2 | F,6 z2 | %78
 !tenuto!B,,2 D, z/ F,,/ !tenuto!B,,2 D, z/ F,/ | B,4 =A,4 | A,4 G,4 | _G,4 D,4 | C,8 | F,,8 | %84
 =E,,8 |!ff! F,,8 |!>(! =E,,8-!>)! |!pp! E,,8 | !fermata!z8 |[M:2/2][Q:1/2=90] z4 z2!ff! =B,,C, | %90
 D,4- D,C,B,,C, | A,,2 F,,2 z2 =B,,C, | (D,3 C,) =B,,C,F,A, | C,2 z2 z A,,B,,C, | D,2 z2 z4 | %95
 z4 z2 A,,2 | D,4- D,C,B,,C, | D,2 G,,2 z2 G,,2 | D,4- D,C,=B,,C, | ^C,2 =D,2 z2 C,D, | %100
 ^D,2 =E,2 z2 A,,=D, | ^D,2 =E,2 z2 G,,E, | F,4- F,=E,=D,E, | F,2 C,2 z2 =E,F, | %104
[Q:1/2=104] _G,4- G,F,=E,F, | ._G,2 .C,2 z2 .G,2 | .C,2 z2 ._G,2 .C,2 | z2 ._G,2 .C,2 z2 | %108
!fff! !^!_G,4 .C,2 z2 | !^!_G,4 .C,2 z2 | _G,8- | (3:2:2G,4 .F,2 (3.=E,2 ._E,2 .=D,2 | %112
 .^C,2 .=C,2 z4 | z8 |!ff! =B,4 =A,3 B, | ^F,8 | z8 |!ff! =E,4 =D,3 E, | =B,,8 | z8 | %120
 =B,,4 =A,,3 B,, | ^F,,8- | F,,8 |] %123

